X: 146205
T: The FOUR POSTED BED
%R: reel
B: James Kerr "Merry Melodies" v.1 p.46 s.2 #5
Z: 2016 John Chambers <jc:trillian.mit.edu>
M: C
L: 1/8
K: D
de |\
f2f2 e2fg | agfe dcde |\
f2f2 e2d2 | a4d2 ::\
cd |\
e2e2 e3f | edcB "^pizz."A2e2 |\
"_*1"z2"^pizz."e2 "_*2"z2"^pizz."e2 |\
"_*3"z2"^pizz."e2 "_*4"z2"^pizz."e2 |\
e2e2 e3f | edcB A2fg |\
a2ag f2e2 | d4 d2 :|
%%text *1: 1st Corner *2: 2nd Corner *3: 3rd Corner *4: 4th Corner
%%begintext align
%% The notes marked pizzicatto are plunked with the 3rd or 4th finger of the left hand
%% The rests are filled up by Striking the four corners of the Violin
%% with the nut end of the bow __ held perpindicular [sic]
%%endtext

% %newpage
%%sep 1 1 500
%%sep 1 1 500
%%center HIGHLAND AIRS AND QUICKSTEPS

%%sep 1 1 500
%%sep 1 1 500

